!!!!SEGMENT: pl-gd--ee-2628--005-007_stabile-annibale--il-primo-libro-de-madrigali-a-cinque-voci-donna-il-bel-volto.krn
!!!cenid: 15xx:1052
!!!COM: Stabile, Annibale
!!!COM-rismid: pe30009662
!!!CDT: ~1535-1595/04
!!!CNT: Italian
!!!GTL: Il primo libro de madrigali a cinque voci
!!!OTL: Donna il bel volto
!!!OMV: 007
!!!PDT: 1586
!!!AGN:
!!!SMS-siglum: PL-GD
!!!SMS-shelfmark: Ee 2628
!!!SMS-variant:
!!!SMS-altvar:
!!!SMS-shelfwork: 005-007 G
!!!NIFC-rismid: 990060531
!!!URL-scan: https://repozytorium.nifc.pl/islandora/object/pl-gd%3A66139/datastream/PDF/view
!!!ONB-nifc: UWAGA: Canto: s. 78-89, Tenore: s. 233-245, Basso: s. 390-401, Quinto: s. 712-723. Dla głosu Alto proszę skorzystać z https://pbc.gda.pl/dlibra/doccontent?id=79410, str. 25-48. Uwaga: utwory podzielone wg spisu treści dostępnych na końcu ksiąg – proszę sprawdzać sąsiednie tytuły. Głos Quinto proszę umieszczać wg ambitusu (może się różnić w zależności od utworu).
!!!AIN: 1 alto 1 bass 2 soprn 1 tenor
!!!key: g:dor
**kern	**text	**kern	**text	**kern	**text	**kern	**text	**kern	**text
*part5	*part5	*part4	*part4	*part3	*part3	*part2	*part2	*part1	*part1
*staff5	*staff5	*staff4	*staff4	*staff3	*staff3	*staff2	*staff2	*staff1	*staff1
*I"BASSO	*	*I"TENORE	*	*I"ALTO	*	*I"QVINTO	*	*I"CANTO	*
*I'B	*	*I'T	*	*I'A	*	*I'V 5	*	*I'S	*
*Ibass	*	*Itenor	*	*Ialto	*	*Isoprn	*	*Isoprn	*
*ICvox	*	*ICvox	*	*ICvox	*	*ICvox	*	*ICvox	*
*clefF3	*	*clefC3	*	*clefC2	*	*clefG2	*	*clefG2	*
*k[b-]	*	*k[b-]	*	*k[b-]	*	*k[b-]	*	*k[b-]	*
*g:dor	*	*g:dor	*	*g:dor	*	*g:dor	*	*g:dor	*
*M2/1	*	*M2/1	*	*M2/1	*	*M2/1	*	*M2/1	*
*met(C)	*	*met(C)	*	*met(C)	*	*met(C)	*	*met(C)	*
=1-	=1-	=1-	=1-	=1-	=1-	=1-	=1-	=1-	=1-
!LO:TX:t=P:problem:przy kluczu BB- B-	!	!	!	!LO:TX:t=P:problem:przy kluczu B- b-	!	!	!	!	!
!LO:TX:a:i:t=Prima parte	!	!LO:TX:a:i:t=Prima parte	!	!LO:TX:a:i:t=Prima parte	!	!LO:TX:a:i:t=Prima parte	!	!LO:TX:a:i:t=Prima parte	!
00r	.	1B-	DOn-	1b-	DOn-	1dd	DOn-	1ff	DOn-
.	.	2f\	na_il	2a\	na_il	2cc\	na_il	2ff\	na_il
.	.	4g\	bel	4g\	bel	4b-/	bel	4dd\	bel
.	.	2d\	vol-	2f#X\	vol-	2a/	vol-	2dd\	vol-
=2-	=2-	=2-	=2-	=2-	=2-	=2-	=2-	=2-	=2-
.	.	.	.	.	.	.	.	.	.
!	!	!	!	!	!	!LO:N:acc=#	!	!	!
.	.	4G/	-to	4g\	-to	4bn/	-to	4dd\	-to
.	.	4.c/	non	4.g\	non	4.cc\	non	4.ee\	non
.	.	8F/	te-	8a\	te-	8cc\	te-	8ff\	te-
.	.	4c/	-ner	4g\	-ner	4cc\	-ner	4ee\	-ner
.	.	4A/	ce-	2fny\	ce-	4cc\	ce-	4ff\	ce-
.	.	2G/	-la-	.	.	2b-y/	-la-	2gg\	-la-
.	.	.	.	4e/	-la-	.	.	.	.
=3-	=3-	=3-	=3-	=3-	=3-	=3-	=3-	=3-	=3-
1r	.	4F/	-to	4f\	-to	4a/	-to	4cc\	-to
.	.	2F/	non	2a\	non	2cc\	non	2ff\	non
.	.	4G/	te-	4g\	te-	4b-/	te-	4dd\	te-
2r	.	4d\	-ner	4f#X\	-ner	4a/	-ner	4dd\	-ner
*	*	*	*	*	*	*custos:a	*	*	*
.	.	4e-X\	ce-	4g\	ce-	4g/	ce-	4cc\	ce-
*	*	*	*	*custos:f	*	*	*	*custos:dd	*
!	!	!	!	!LO:LB:g=original	!	!LO:LB:g=original	!	!LO:LB:g=original	!
2D/	Che'l	2d\	-la-	2f#X\	-la-	2a/	-la-	2dd\	-la-
*	*	*custos:G	*	*	*	*	*	*	*
!	!	!LO:LB:g=original	!	!	!	!	!	!	!
=4-	=4-	=4-	=4-	=4-	=4-	=4-	=4-	=4-	=4-
2d\	ciel	2G/	-to	4g\	-to	1g	-to	2dd\	-to
.	.	.	.	2d/	Che'l	.	.	.	.
!LO:N:acc=#	!	!	!	!	!	!	!	!	!
4Bn\	ne	2r	.	.	.	.	.	2r	.
2c\	ſta	.	.	2e/	ciel	.	.	.	.
.	.	2r	.	.	.	2r	.	2a/	Che'l
4d\	tur-	.	.	4f#X\	ne	.	.	.	.
!	!	!	!	!	!	!	!	!LO:N:acc=#	!
2G\	-ba-	2d\	Che'l	2g\	ſta	4r	.	4.bn/	ciel
.	.	.	.	.	.	4gg\	Che'l	.	.
.	.	.	.	.	.	.	.	8cc\	ne
=5-	=5-	=5-	=5-	=5-	=5-	=5-	=5-	=5-	=5-
4D/	-to	4a\	ciel	1r	.	4ff\	ciel	4dd\	ſta
4d\	Che'l	4f\	ne	.	.	4dd\	ne	4a/	tur-
*custos:c	*	*	*	*	*	*	*	*	*
!LO:LB:g=original	!	!	!	!	!	!	!	!	!
4c\	ciel	4g\	ſta	.	.	4ee\	ſta	2cc\	-ba-
4A\	ne	4a\	tur-	.	.	2ff\	tur-	.	.
4B-y\	ſta	2f\	-ba-	4r	.	.	.	2dd\	-to
4d\	tur-	.	.	4a\	Che'l	4.dd\	-ba-	.	.
2A\	-ba-	2eny\	-to	4a\	ciel	.	.	4r	.
.	.	.	.	.	.	8cc#X\	.	.	.
*	*	*	*	*	*	*	*	*	*ij
.	.	.	.	4a\	ne	4cc#\	.	4ee\	Che'l
=6-	=6-	=6-	=6-	=6-	=6-	=6-	=6-	=6-	=6-
4D/	-to	4r	.	2a\	ſta	4dd\	-to	4ff#X\	ciel
4D/	ne	4d\	ne	.	.	4dd\	ne	4ff#\	ne
!	!	!	!	!	!	!LO:N:acc=#	!	!	!
4G\	ſta	4d\	ſta	2g\	tur-	4bn/	ſta	4gg\	ſta
4G\	tur-	4d\	tur-	.	.	4b/	tur-	4dd\	tur-
1C	-ba-	1c	-ba-	1g	-ba-	1ccny	-ba-	1ee-X	-ba-
=7-	=7-	=7-	=7-	=7-	=7-	=7-	=7-	=7-	=7-
!	!	!	!	!	!	!LO:N:acc=#	!	!	!
1G	-to	2d\	-to	1g	-to	1bn	-to	2dd\	-to
*	*	*	*	*	*	*	*	*	*Xij
.	.	4r	.	.	.	.	.	2dd\	(et)
.	.	4G/	(et)	.	.	.	.	.	.
1r	.	4.e-X\	ne	4r	.	2r	.	4.gg\	ne
.	.	.	.	4g\	(et)	.	.	.	.
.	.	8e-\	di-	.	.	.	.	8gg\	di-
*	*	*	*	*	*	*	*	*custos:gg	*
!	!	!	!	!	!	!	!	!LO:LB:g=original	!
.	.	4e-\	-mo-	2b-\	ne	4r	.	4gg\	-moſ-
!	!	!	!	!	!	!LO:TX:t=P:problem:błędny custos	!	!	!
.	.	4d\	-ſtra_i	.	.	4dd\	(et)	4ffny\	-tra
*	*	*	*	*	*	*custos:ee	*	*	*
!	!	!	!	!	!	!LO:LB:g=original	!	!	!
=8-	=8-	=8-	=8-	=8-	=8-	=8-	=8-	=8-	=8-
0r	.	2c/	ſe-	2cc\	di-	4.gg\	ne	2ee-X\	ſe-
.	.	.	.	.	.	8gg\	di-	.	.
*	*	*custos:G	*	*	*	*	*	*	*
!	!	!LO:LB:g=original	!	!LO:N:acc=#	!	!	!	!	!
.	.	2G/	-gni	4bn\	-mo-	4gg\	-mo-	4dd\	-gni
*	*	*	*	*	*	*	*	*	*ij
.	.	.	.	4b\	ſtra_i	4ff\	ſtra_i	4dd\	et
*	*	*	*	*custos:cc	*	*	*	*	*
!	!	!	!	!LO:LB:g=original	!	!	!	!	!
.	.	4r	.	4cc\	ſe-	2ee-X\	ſe-	4.gg\	ne
*	*	*	*ij	*	*	*	*	*	*
.	.	4c/	(et)	4g\	-gni	.	.	.	.
.	.	.	.	.	.	.	.	8gg\	di-
!	!	!LO:N:acc=#	!	!	!	!	!	!	!
.	.	4.Bn/	ne	2r	.	2dd\	-gni	4gg\	-moſ-
.	.	.	.	.	.	.	.	4ff\	-tra
.	.	8B/	di-	.	.	.	.	.	.
=9-	=9-	=9-	=9-	=9-	=9-	=9-	=9-	=9-	=9-
2C/	(et)	4c\	-mo-	2g\	(et)	2r	.	2ee-X\	ſe-
.	.	4c\	ſtra_i	.	.	.	.	.	.
4.G\	ne	2d\	ſe-	4.b-y\	ne	4r	.	2dd\	-gni
*	*	*	*	*	*	*	*ij	*	*Xij
.	.	.	.	.	.	4g/	(et)	.	.
8G\	di-	.	.	8b-\	di-	.	.	.	.
4G\	-mo-	2d\	-gni	4b-\	-mo-	4.dd\	ne	1r	.
*	*	*	*Xij	*	*	*	*	*	*
4F/	ſtra_i	.	.	4a\	ſtra_i	.	.	.	.
.	.	.	.	.	.	8dd\	di-	.	.
2E-X/	ſe-	2G/	(et)	1g\	ſe-	4dd\	-mo-	.	.
.	.	.	.	.	.	4cc\	ſtra_i	.	.
*custos:D	*	*	*	*	*	*	*	*	*
!LO:LB:g=original	!	!	!	!	!	!	!	!	!
=10-	=10-	=10-	=10-	=10-	=10-	=10-	=10-	=10-	=10-
1D	-gni	4.d\	ne	.	.	2b-/	ſe-	4r	.
.	.	.	.	.	.	.	.	4dd\	Che_i
.	.	8d\	di-	.	.	.	.	.	.
.	.	4d\	-mo-	4fny\	.	2a/	-gni	4dd\	ſpeſ-
*	*	*	*	*	*	*	*Xij	*	*
.	.	4c/	ſtra_i	4e\	.	.	.	4eeny\	-si
2r	.	2B-y/	ſe-	2d/	.	2r	.	4ff\	nuo-
.	.	.	.	.	.	.	.	4gg\	-uol
*	*	*	*	*	*	*	*	*custos:gg	*
2D/	Che_i	4A/	-gni	4d/	-gni	2a/	Che_i	2ff#X\	pre-
.	.	4A/	Che_i	4d/	Che_i	.	.	.	.
=11-	=11-	=11-	=11-	=11-	=11-	=11-	=11-	=11-	=11-
!	!	!LO:N:acc=#	!	!	!	!	!	!	!
2G\	ſpeſ-	2Bn/	ſpeſ-	4d/	ſpeſ-	2.g/	ſpeſ-	1gg	-gni
.	.	.	.	4d/	-si	.	.	.	.
2C/	-si	2.c/	-si	2e/	nuo-	.	.	.	.
.	.	.	.	.	.	4g/	-si	.	.
4F/	nuo-	.	.	4f\	-uol	4a/	nuo-	1r	.
4G\	-uol	2B-y/	nuo-	2d/	pre-	4b-/	-uol	.	.
*	*	*	*	*	*	*custos:g	*	*	*
!	!	!	!	!	!	!LO:LB:g=original	!	!	!
2E-X/	pre-	.	.	.	.	1g/	pre-	.	.
.	.	4G/	-uol	4c/	.	.	.	.	.
*	*	*custos:B	*	*custos:d	*	*	*	*	*
!	!	!LO:LB:g=original	!	!LO:LB:g=original	!	!	!	!	!
=12-	=12-	=12-	=12-	=12-	=12-	=12-	=12-	=12-	=12-
1D	-gni	2B-/	pre-	1d	-gni	.	.	1r	.
.	.	2A/	-gni	.	.	2f#X/	-gni	.	.
2r	.	2r	.	2r	.	2r	.	1dd	Ten-
2.D/	Ten-	2.d\	Ten-	2.f#X\	Ten-	2.a/	Ten-	.	.
=13-	=13-	=13-	=13-	=13-	=13-	=13-	=13-	=13-	=13-
.	.	.	.	.	.	.	.	2dd\	-tan
4D/	-tan	4d\	-tan	4f#\	-tan	4a/	-tan	.	.
!	!	!	!	!	!	!	!	!LO:N:acc=#	!
2G\	ſot-	2d\	ſot-	2g\	ſot-	1g	ſot-	2bn/	ſot-
1C	to_ac-	2c/	to_ac-	1e-X	to_ac-	.	.	1cc	to_ac-
.	.	2G/	-qua	.	.	1cc\	to_ac-	.	.
=14-	=14-	=14-	=14-	=14-	=14-	=14-	=14-	=14-	=14-
1G	-qua	2r	.	2d/	-qua	.	.	2dd\	-qua
!	!	!	!	!	!	!LO:N:acc=#	!	!	!
.	.	2G/	vn'-	2g\	vn'-	2bn/	-qua	2dd\	vn'-
1r	.	2c/	-al-	2.g\	-al-	1r	.	2ee\	-al-
!	!	!LO:N:acc=#	!	!	!	!	!	!	!
.	.	4Bn/	-tra	.	.	.	.	4dd\	-tra
.	.	2c/	vol-	4g\	-tra	.	.	2ee\	vol-
=15-	=15-	=15-	=15-	=15-	=15-	=15-	=15-	=15-	=15-
2r	.	.	.	4g\	vol-	2r	.	.	.
.	.	4e-X\	-ta	4g\	-ta	.	.	4gg\	-ta
2D/	vn'-	2d\	por-	2a\	por-	2dd\	vn'-	2ff#X\	por-
2G\	-al-	1d	-re	4g\	-re	2b-y/	-al-	4gg\	-re
.	.	.	.	4g\	vn'-	.	.	4dd\	vn'-
*custos:F	*	*	*	*	*	*	*	*	*
!LO:LB:g=original	!	!	!	!	!	!	!	!	!
4F#X/	-tra	.	.	4a\	-al-	4a/	-tra	4.dd\	-al-
2G\	vol-	.	.	4g\	-tra	2b-/	vol-	.	.
.	.	.	.	.	.	.	.	8dd\	-tra
=16-	=16-	=16-	=16-	=16-	=16-	=16-	=16-	=16-	=16-
.	.	1r	.	4g\	vol-	.	.	4dd\	vol-
4B-\	-ta	.	.	4d/	-ta	4dd\	-ta	4g/	-ta
*	*	*	*	*	*	*	*	*custos:a	*
!	!	!	!	!	!	!	!	!LO:LB:g=original	!
2A\	por-	.	.	2eny/	por-	2cc#X\	por-	2a/	por-
1D	-re	2r	.	1f#X	-re	2dd\	-re	2a/	-re
.	.	2d\	L'al-	.	.	1dd\	L'al-	4r	.
.	.	.	.	.	.	.	.	4dd\	L'al-
*	*	*	*	*custos:g	*	*	*	*	*
!	!	!	!	!LO:LB:g=original	!	!	!	!	!
=17-	=17-	=17-	=17-	=17-	=17-	=17-	=17-	=17-	=17-
!	!	!	!	!	!	!	!	!LO:N:acc=#	!
1r	.	2g\	-te-	2r	.	.	.	2bn/	-te-
.	.	2e-X\	-ri	2g\	L'al-	1gg	-te-	2cc\	-ri
2r	.	2d\	mon-	2b-\	-te-	.	.	1.dd	mon-
4r	.	2d\	-ti	2a\	-ri	2ff#X\	-ri	.	.
4d\	L'al-	.	.	.	.	.	.	.	.
*	*	*custos:G	*	*	*	*custos:gg	*	*	*
!	!	!LO:LB:g=original	!	!	!	!LO:LB:g=original	!	!	!
=18-	=18-	=18-	=18-	=18-	=18-	=18-	=18-	=18-	=18-
!LO:N:acc=#	!	!	!	!	!	!	!	!	!
2Bn\	-te-	4r	.	2g\	mon-	2gg\	mon-	.	.
*	*	*	*ij	*	*	*	*	*	*
.	.	4G/	L'al-	.	.	.	.	.	.
2c\	-ri	1g	-te-	2e-X/	-ti	4gg\	-ti	2cc\	-ti
.	.	.	.	.	.	4g/	L'al-	.	.
1d	mon-	.	.	1r	.	2b-/	-te-	2r	.
.	.	2f#X\	-ri	.	.	2a/	-ri	1dd\	L'al-
=19-	=19-	=19-	=19-	=19-	=19-	=19-	=19-	=19-	=19-
1G	-ti	2g\	mon-	2r	.	4g/	mon-	.	.
.	.	.	.	.	.	4a/	.	.	.
*	*	*	*	*	*ij	*	*	*	*
.	.	2G/	-ti_e	2g\	L'al-	4b-/	.	1gg	-te-
*	*	*	*Xij	*	*	*	*	*	*
.	.	.	.	.	.	4ccny\	.	.	.
1r	.	8G/	le	2b-\	-te-	0dd	.	.	.
.	.	8A/	.	.	.	.	.	.	.
.	.	8B-y/	.	.	.	.	.	.	.
.	.	8c/	.	.	.	.	.	.	.
.	.	4d\	.	2a\	-ri	.	.	2ff#X\	-ri
.	.	4d\	ſu-	.	.	.	.	.	.
=20-	=20-	=20-	=20-	=20-	=20-	=20-	=20-	=20-	=20-
1r	.	4B-/	-per-	1b-	mon-	.	.	1.gg	mon-
.	.	4G/	-be	.	.	.	.	.	.
.	.	2g\	tor-	.	.	.	.	.	.
2r	.	1d	-re	2a\	-ti	1dd	ti_e	.	.
*	*	*	*	*	*Xij	*	*	*	*
2D/	(et)	.	.	4r	.	.	.	2ffny\	ti_et
.	.	.	.	4d/	e	.	.	.	.
=21-	=21-	=21-	=21-	=21-	=21-	=21-	=21-	=21-	=21-
2.d\	le	1r	.	8d/	le	2.dd\	le	2.ff\	le
.	.	.	.	8eny/	.	.	.	.	.
.	.	.	.	8fny\	.	.	.	.	.
.	.	.	.	8g\	.	.	.	.	.
.	.	.	.	4a\	.	.	.	.	.
4A\	ſu-	.	.	4a\	ſu-	4cc\	ſu-	4ee\	ſu-
*custos:B	*	*	*	*	*	*	*	*	*
!LO:LB:g=original	!	!	!	!	!	!	!	!	!
4B-y\	-per-	2r	.	4f\	-per-	4b-/	-per-	4dd\	-per-
4G\	-be	.	.	4g\	-be	4b-/	-be	4dd\	-be
*	*	*	*	*custos:e	*	*	*	*	*
!	!	!	!	!LO:LB:g=original	!	!	!	!	!
2A\	tor-	4r	.	2e/	tor-	2a/	tor-	2cc#X\	tor-
.	.	4eny\	e	.	.	.	.	.	.
=22-	=22-	=22-	=22-	=22-	=22-	=22-	=22-	=22-	=22-
2D/	-re	4f#X\	le	0d	-re	4a/	-re	2dd\	-re
.	.	4f#\	ſu-	.	.	4a/	e	.	.
*	*	*	*	*	*	*	*	*custos:dd	*
!	!	!	!	!	!	!	!	!LO:LB:g=original	!
2G\	(et)	4g\	-per-	.	.	4.b-/	le	4r	.
.	.	4G/	-be	.	.	.	.	4dd\	(et)
.	.	.	.	.	.	8cc\	ſu-	.	.
*	*	*custos:B	*	*	*	*custos:dd	*	*	*
!	!	!LO:LB:g=original	!	!	!	!	!	!	!
4G\	le	4.B-/	tor-	.	.	2.dd\	-per-	2g/	le
4G\	ſu-	.	.	.	.	.	.	.	.
.	.	8c\	.	.	.	.	.	.	.
4B-\	-per-	8d\	.	.	.	.	.	4f/	ſu-
.	.	8c\	.	.	.	.	.	.	.
4G\	-be	8B-/	.	.	.	4dd\	-be	2g/	-per-
.	.	8A/	.	.	.	.	.	.	.
=23-	=23-	=23-	=23-	=23-	=23-	=23-	=23-	=23-	=23-
1d	tor-	4G/	.	2r	.	1dd	tor-	.	.
.	.	4F#X/	.	.	.	.	.	4a/	-be
.	.	2G/	.	2g\	Tre-	.	.	2b-y/	tor-
0.D	-re	4d\	-re	4f\	-ma	2dd\	-re	4a/	-re
.	.	4fny\	Tre-	4d/	la	.	.	4dd\	Tre-
.	.	4f\	-ma	2a\	ter-	2r	.	4dd\	-ma
.	.	4g\	la	.	.	.	.	4ee\	la
=24-	=24-	=24-	=24-	=24-	=24-	=24-	=24-	=24-	=24-
.	.	4.a\	ter-	4d/	-ra	4r	.	2ff\	ter-
*	*	*	*	*	*ij	*	*	*	*
.	.	.	.	4f\	Tre-	4dd\	Tre-	.	.
.	.	8g\	.	.	.	.	.	.	.
.	.	4f\	.	4f\	-ma	4dd\	-ma	2dd\	-ra
.	.	4e\	.	4g\	la	4eeny\	la	.	.
.	.	1d	.	2a\	ter-	2ffny\	ter-	4r	.
.	.	.	.	.	.	.	.	4a/	Tre-
.	.	.	.	4f\	-ra	2dd\	-ra	4a/	-ma
*	*	*	*	*	*Xij	*	*	*	*
!	!	!	!	!	!	!	!	!LO:N:acc=#	!
.	.	.	.	4d/	Tre-	.	.	4bn/	la
=25-	=25-	=25-	=25-	=25-	=25-	=25-	=25-	=25-	=25-
2r	.	2A/	-ra	4e/	-ma	2r	.	4cc#X\	ter-
.	.	.	.	4f\	la	.	.	2dd\	.
2A\	Tre-	4r	.	2e/	ter-	2.a/	Tre-	.	.
*	*	*	*	*	*	*	*	*custos:dd	*
.	.	4A/	Tre-	.	.	.	.	4cc#X\	.
!	!	!	!	!	!	!	!	!LO:LB:g=original	!
4F#X/	-ma	4A/	-ma	2.d/	-ra	.	.	1dd	-ra
4G\	la	4B-/	la	.	.	2g/	-ma	.	.
*	*	*custos:A	*	*	*	*	*	*	*
!	!	!LO:LB:g=original	!	!	!	!	!	!	!
2D/	ter-	2A/	ter-	.	.	.	.	.	.
.	.	.	.	4a\	(et)	4f#X/	la	.	.
=26-	=26-	=26-	=26-	=26-	=26-	=26-	=26-	=26-	=26-
1G	-ra	2G/	-ra	4.b-\	mor-	4.g/	ter-	2r	.
.	.	.	.	8a\	-mo-	8a/	.	.	.
*	*	*	*	*custos:g	*	*	*	*	*
!	!	!	!	!LO:LB:g=original	!	!	!	!	!
.	.	4r	.	4g\	-ran-	2b-/	.	2dd\	(et)
.	.	4G/	(et)	4g\	do_i	.	.	.	.
1r	.	4.d\	mor-	2a\	ven-	4a/	-ra	4.ff\	mor-
.	.	.	.	.	.	4dd\	(et)	.	.
.	.	8c/	-mo-	.	.	.	.	8ee\	-mo-
.	.	4B-/	-ran-	4d/	-ti	4.ff\	mor-	4dd\	-ran-
.	.	4A/	do_i	2a\	i	.	.	4ccny\	do_i
.	.	.	.	.	.	8ee\	-mo-	.	.
*	*	*	*	*	*	*custos:dd	*	*	*
!	!	!	!	!	!	!LO:LB:g=original	!	!	!
=27-	=27-	=27-	=27-	=27-	=27-	=27-	=27-	=27-	=27-
0r	.	4.B-/	ven-	.	.	4dd\	-ran-	2b-y/	ven-
.	.	.	.	4.g\	ven-	4dd\	do_i	.	.
.	.	8c\	.	.	.	.	.	.	.
.	.	2d\	.	.	.	2dd\	ven-	2a/	-ti
.	.	.	.	8f#X\	.	.	.	.	.
.	.	.	.	4f#\	.	.	.	.	.
.	.	2G/	-ti	4g\	-ti	4dd\	-ti	2b-/	Per
.	.	.	.	4g\	Per	4dd\	Per	.	.
.	.	2r	.	4f#X\	l'a-	4dd\	l'a-	4a/	l'a-
!	!	!	!	!	!	!	!	!LO:N:acc=#	!
.	.	.	.	4g\	-ria	4dd\	-ria	4bn/	-ria
*custos:c	*	*	*	*	*	*	*	*	*
!LO:LB:g=original	!	!	!	!	!	!	!	!	!
=28-	=28-	=28-	=28-	=28-	=28-	=28-	=28-	=28-	=28-
1r	.	4r	.	2c/	van	4ee\	van	4cc\	van
*	*	*	*	*	*	*	*ij	*	*ij
.	.	4g\	Per	.	.	4cc\	Per	4g/	Per
.	.	4f#X\	l'a-	2r	.	4dd\	l'a-	4a/	l'a-
!	!	!	!	!	!	!	!	!LO:N:acc=#	!
.	.	4g\	-ria	.	.	4dd\	-ria	4bn/	-ria
4r	.	4c/	van	2g\	Per	4ee\	van	4cc\	van
*	*	*	*ij	*	*	*	*Xij	*	*Xij
4c\	Per	4e\	Per	.	.	4gg\	Per	4cc\	Per
!LO:N:acc=#	!	!	!	!	!	!	!	!	!
4Bn\	l'a-	4d\	l'a-	4g\	l'a-	4gg\	l'a-	4dd\	l'a-
4c\	-ria	4e\	-ria	4g\	-ria	4gg\	-ria	4cc\	-ria
*	*	*	*	*	*	*	*	*custos:cc	*
!	!	!	!	!	!	!	!	!LO:LB:g=original	!
=29-	=29-	=29-	=29-	=29-	=29-	=29-	=29-	=29-	=29-
4Fny/	van	4fny\	van	4a\	van	4ff\	van	2cc\	van
*	*	*	*Xij	*	*	*	*	*	*
4A\	con	4c/	con	4a\	con	4ee\	con	.	.
*	*	*custos:f	*	*custos:a	*	*	*	*	*
!	!	!LO:LB:g=original	!	!LO:LB:g=original	!	!	!	!	!
4d\	ſtre-	4f\	ſtre-	4a\	ſtre-	4.dd\	ſtre-	2r	.
4G\	-pi-	4g\	-pi-	4b-\	-pi-	.	.	.	.
.	.	.	.	.	.	8dd\	-pi-	.	.
4A\	-to-	4e\	-to-	4a\	-to-	4cc#X\	-to-	1r	.
4B-y\	ſi_ac-	4d\	ſi_ac-	4g\	ſi_ac-	4dd\	ſi_ac-	.	.
*	*	*	*	*	*	*custos:cc	*	*	*
!	!	!	!	!	!	!LO:LB:g=original	!	!	!
2A\	-cen-	2e\	-cen-	2a\	-cen-	2cc#X\	-cen-	.	.
=30-	=30-	=30-	=30-	=30-	=30-	=30-	=30-	=30-	=30-
2D/	-ti	2d\	-ti	4a\	-ti	4dd\	-ti	4r	.
.	.	.	.	4f#X\	Per	4a/	Per	4dd\	Per
2r	.	2r	.	4f#\	l'a-	4a/	l'a-	4dd\	l'a-
!	!	!	!	!	!	!LO:N:acc=#	!	!	!
.	.	.	.	4g\	-ria	4bn/	-ria	4dd\	-ria
1r	.	4r	.	2c/	van	4ccny\	van	4ee\	van
*	*	*	*	*	*	*	*ij	*	*ij
.	.	4g\	Per	.	.	4g/	Per	4cc\	Per
.	.	4f#X\	l'a-	2r	.	4a/	l'a-	4dd\	l'a-
!	!	!	!	!	!	!LO:N:acc=#	!	!	!
.	.	4g\	-ria	.	.	4bn/	-ria	4dd\	-ria
=31-	=31-	=31-	=31-	=31-	=31-	=31-	=31-	=31-	=31-
*	*	*	*	*	*ij	*	*	*	*
4r	.	4c/	van	2g\	Per	4cc\	van	4ee\	van
*	*	*	*ij	*	*	*	*Xij	*	*Xij
4c\	Per	4e\	Per	.	.	4cc\	Per	4gg\	Per
!LO:N:acc=#	!	!	!	!	!	!	!	!	!
4Bn\	l'a-	4d\	l'a-	4g\	l'a-	4dd\	l'a-	4gg\	l'a-
4c\	-ria	4e\	-ria	4g\	-ria	4cc\	-ria	4gg\	-ria
4F/	van	4fny\	van	4a\	van	4cc\	van	4ff\	van
*	*	*	*Xij	*	*Xij	*	*	*	*
4A\	con	4c/	con	4a\	con	4cc\	con-	4ee\	con
*custos:d	*	*	*	*	*	*	*	*	*
!LO:LB:g=original	!	!	!	!	!	!	!	!	!
4d\	ſtre-	4.d\	ſtre-	4fny\	ſtre-	4a/	-ſtre-	4.dd\	ſtre-
4G\	-pi-	.	.	4g\	-pi-	4b-y/	-pi-	.	.
.	.	8d\	-pi-	.	.	.	.	8dd\	-pi-
=32-	=32-	=32-	=32-	=32-	=32-	=32-	=32-	=32-	=32-
4A\	-to-	4a\	-to-	4e/	-to-	4a/	-to-	4cc#X\	-to-
4D/	ſi ac-	4f\	ſi_ac-	4d/	ſi_ac-	4a/	ſi_ac-	4dd\	-ſi_ac-
2A\	-cen-	2e\	-cen-	2e/	-cen-	2a/	-cen-	2cc#X\	-cen-
1Dl	-ti.	1dl	-ti.	1f#Xl	-ti.	1al	-ti.	1ddl	-ti.
==	==	==	==	==	==	==	==	==	==
*-	*-	*-	*-	*-	*-	*-	*-	*-	*-
!!!system-decoration: [(*)]
!!!RDF**kern: l = terminal long
!!!ENC: Mateusz Solarz
!!!END: 2022-07-07
!!!ENC: Andrzej Kubiczek
!!!END: 2022-07-29
